X:1
T:James Gibb editions
T:Psalm 50 (Becker) - Schütz
%%score [ ( 1 2 ) ( 3 4 ) ]
L:1/8
Q:1/4=100
M:2/2
K:C
V:1 treble nm="Soprano Alto"
V:2 treble 
V:3 bass nm="Tenor Bass"
V:4 bass 
V:1
"^Cornelius Becker\n(1561-1604)""^Psalm 50, SWV 147""^Heinrich Schütz\n(1585-1672)" D4 | F6 G2 | %2
w: ||
 A2 _B2 G2 G2 | ^F4 A4 | =B6 A2 | B2 d2 e4 | d4 :|[M:2/2] d4 c4 | B2 A4 F2 | A2 G2 F4 | C4 G4 | %11
w: |||||er wan-|dert durch den|Erd- kreis ganz,|aus Zi-|
 G2 c4 _B2 | A2 G2 A4 | c4 d4- | d2 !courtesy!=B2 c2 A2 | A8 | A8 |] %17
w: on bricht der|schö- ne Glanz,|Gott kommt|* und schweigt nicht|stil-|le.|
V:2
 A,4 | D6 E2 | F2 D2 D2 ^C2 | D4 ^F4 | G6 A2 | G2 F2 A4 | ^F4 :|[M:2/2] F4 E4 | E2 C4 D2 | %9
w: ~Gott|un- ser|Herr, mäch- tig durchs|Wort, all|Welt mit|Treu- en mei-|net,|||
w: sein|E- van-|ge- lium wird ge-|hört, so-|weit die|Son- ne schei-|net,|||
 C2 C2 C4 | G,4 C4 | D2 C4 D2 | D2 D2 ^C4 | E4 F4- | F2 D2 E2 D2- | D2 (^CB, !courtesy!^C4) | D8 |] %17
w: |||||* * * nicht|* sti\- * *|le.|
w: ||||||||
V:3
 F,4 | A,6 C2 | A,2 G,2 G,2 E,2 | A,4 D4 | D6 D2 | D2 D2 ^C4 | D4 :|[M:2/2] A,4 A,4 | G,2 F,4 D,2 | %9
 F,2 E,2 F,4 | E,4 E,4 | D,2 E,4 G,2 | %12
"^2. Vor ihm geht fressend Feuer her,\ngroß Wetter um ihn scheinet, \nder Herr ruft an Himmel und Erd, \ner richtet die Gemeine. \nEr spricht: Sammelt die Heilgen mein, \ndie meinen Bund von Herzen rein \nmehr achten als das Opfer.\n\n3. Die Himmel, zu seim Dienst bereit,\nsollen das Recht verkünden, \naus lauter Gnad und Gütigkeit \nkommt Vergebung der Sünden, \ndies aller Welt werd kund getan, \nvor Gottes G'richt kann nichts bestahn, \nwas Christi Tod nicht sühnet." F,2 D,2 E,4 | %13
 A,4 A,4- | %14
 A,2"^4. Hör, mein Volk, und merk auf mit Fleiß, \ndenn ich will mich dir zeigen,\nich bin der Herr, das ist mein Preis,\ndaß ich, Gott, bin dein eigen, \nruf mich an in der Zeit der Not,\nich helf dir als dein treuer Gott,\ndafür sollst du mich preisen.\n\n12. Mein Gnade und Barmherzigkeit \nan denen ich beweise, \ndie in des Glaubens Heiligkeit \nmir dienen und mich preisen, \ndas ist der Weg, den du mußt gehen, \nwenn du bei mir in Gnad willst stehn \nund ewig selig werden." G,2 G,2 F,2 | %15
 E,8 | D,8 |] %17
V:4
 D,4 | D,6 C,2 | F,2 G,2 E,2 E,2 | D,4 D,4 | G,6 ^F,2 | G,2 _B,2 A,4 | D,4 :|[M:2/2] D,4 A,,4 | %8
 E,2 F,4 _B,,2 | F,,2 C,2 F,,4 | C,4 C,4 | B,,2 A,,4 G,,2 | D,2 _B,,2 A,,4 | A,,4 D,4- | %14
 D,2 G,,2 C,2 D,2 | A,,8 | D,8 |] %17

